packages/core/src/svgs/tokens/mono/SOLO.svg

<svg width="24" height="24" viewBox="0 0 24 24" fill="none" xmlns="http://www.w3.org/2000/svg">
<path d="M16.4374 17.625C16.2938 17.9874 14.5499 19.5 12.7312 19.5C10.0313 19.5 8.24998 18.5187 8.24998 16.5625C8.24998 14.7625 10.5 13.9 13.2625 12.9C16.5938 11.7749 18.25 9.78752 18.25 7.06249C18.25 3.81248 15.6124 2 11.65 2C9.5563 2 6.87498 3.08749 6.16874 3.81248L7.83124 5.74997C8.49999 5.40623 9.76877 4.49998 11.6249 4.49998C14.4063 4.49998 15.75 5.74373 15.75 7.06249C15.75 8.86873 14.7312 9.70002 11.9125 10.7312C8.46249 11.9999 5.75 13.5249 5.75 16.3624C5.75 19.3499 7.91248 22 12.7312 22C14.7 22 16.9812 20.9124 18.25 19.5749L16.4374 17.625Z" fill="white"/>
</svg>

<svg xmlns="http://www.w3.org/2000/svg" width="24" height="24" fill="none" viewBox="0 0 24 24">
    <path fill="#fff" d="M16.437 17.625c-.143.362-1.887 1.875-3.706 1.875-2.7 0-4.481-.981-4.481-2.937 0-1.8 2.25-2.663 5.012-3.663 3.332-1.125 4.988-3.112 4.988-5.838 0-3.25-2.638-5.062-6.6-5.062-2.094 0-4.775 1.087-5.481 1.812L7.83 5.75c.67-.344 1.94-1.25 3.795-1.25 2.781 0 4.125 1.244 4.125 2.562 0 1.807-1.019 2.638-3.838 3.67C8.462 12 5.75 13.524 5.75 16.361 5.75 19.35 7.912 22 12.731 22c1.969 0 4.25-1.088 5.519-2.425z"/>
</svg>
